X: 23456
T: Letham Piggery, The
R: jig
M: 6/8
K: Cmajor
G|:EGG cee|gee c2B|Add d^cd|BGG G2F|
EGG cee|gee c2e|fdB GB^d|1 ecc c2G/F/:|2 ecc c2e/e/||
|:efe e^de|c'ba gff|fgf fdf|bag fgg|
efe e^de|c'ba e2e|fdB GB^d|1 ecc c2e/e/:|2 ecc c3||

